packages/core/src/svgs/sbtc.svg

<svg width="24" height="24" viewBox="0 0 24 24" fill="none" xmlns="http://www.w3.org/2000/svg">
<g clip-path="url(#clip0_31_18405)">
<path d="M0 0H24V24H0V0Z" fill="#F0F3FA"/>
<path d="M12 15.4284C13.8935 15.4284 15.4286 13.8934 15.4286 11.9999C15.4286 10.1063 13.8935 8.57129 12 8.57129C10.1064 8.57129 8.57141 10.1063 8.57141 11.9999C8.57141 13.8934 10.1064 15.4284 12 15.4284Z" fill="#F08619"/>
<path d="M10.2858 13.7142V10.2856H12.7698C13.3741 10.2856 13.7139 10.8556 13.7139 11.3112C13.7139 11.6759 13.5566 11.9069 13.4782 11.9764C13.6668 12.1662 13.7139 12.5112 13.7139 12.6599C13.7293 13.3135 13.1756 13.7142 12.8735 13.7142H10.2858Z" fill="white"/>
<path d="M12 18.8574C15.7873 18.8574 18.8571 15.7875 18.8571 12.0002C18.8571 10.7514 18.5228 9.58007 17.94 8.57164H14.5723C15.1047 8.97043 15.5368 9.48789 15.8342 10.0829C16.1317 10.6779 16.2863 11.3341 16.2857 11.9994C16.2857 14.3638 14.3704 16.2808 12.0068 16.2842L12.0098 16.2859H6.64669C7.28855 17.0891 8.10312 17.7373 9.0299 18.1825C9.95667 18.6277 10.9718 18.8583 12 18.8574ZM6.05997 15.4288C5.45728 14.3868 5.14086 13.2039 5.14283 12.0002C5.14283 8.21293 8.21269 5.14307 12 5.14307C13.028 5.14214 14.0431 5.37283 14.9698 5.818C15.8965 6.26316 16.711 6.91138 17.3528 7.7145H12C9.63297 7.7145 7.71426 9.63278 7.71426 11.9994C7.71373 12.6651 7.86857 13.3218 8.16647 13.9171C8.46438 14.5125 8.89711 15.0301 9.43026 15.4288H6.05997Z" fill="#4E4294"/>
<path d="M12.7401 11.1431H11.1428V11.5716H12.7401C12.7787 11.5592 12.8571 11.5005 12.8571 11.3646C12.8571 11.2288 12.7791 11.1602 12.7401 11.1431ZM12.7401 12.4288H11.1428V12.8574H12.7401C12.7787 12.8449 12.8571 12.7862 12.8571 12.6504C12.8571 12.5145 12.7791 12.4459 12.7401 12.4288Z" fill="#F08619"/>
</g>
<defs>
<clipPath id="clip0_31_18405">
<rect width="24" height="24" fill="white"/>
</clipPath>
</defs>
</svg>

<svg xmlns="http://www.w3.org/2000/svg" width="24" height="24" fill="none" viewBox="0 0 24 24"><g clip-path="url(#a)"><path fill="#F0F3FA" d="M0 0h24v24H0z"/><path fill="#F08619" d="M12 15.428a3.429 3.429 0 1 0 0-6.857 3.429 3.429 0 0 0 0 6.857"/><path fill="#fff" d="M10.286 13.714v-3.428h2.484c.604 0 .944.57.944 1.025 0 .365-.157.596-.236.665.189.19.236.535.236.684.015.653-.538 1.054-.84 1.054z"/><path fill="#4E4294" d="M12 18.857a6.857 6.857 0 0 0 5.94-10.285h-3.368a4.28 4.28 0 0 1 1.714 3.427 4.285 4.285 0 0 1-4.28 4.285l.004.002H6.647A6.84 6.84 0 0 0 12 18.857M6.06 15.43a6.857 6.857 0 0 1 11.293-7.714H12a4.285 4.285 0 0 0-2.57 7.714z"/><path fill="#F08619" d="M12.74 11.143h-1.597v.429h1.597c.039-.013.117-.071.117-.207s-.078-.205-.117-.222m0 1.286h-1.597v.428h1.597c.039-.012.117-.07.117-.207s-.078-.204-.117-.221"/></g><defs><clipPath id="a"><path fill="#fff" d="M0 0h24v24H0z"/></clipPath></defs></svg>
